file/expedia.com.svg

<svg clip-rule="evenodd" fill-rule="evenodd" stroke-linejoin="round" stroke-miterlimit="1.41421" viewBox="0 0 560 400" xmlns="http://www.w3.org/2000/svg"><g fill-rule="nonzero" transform="matrix(.908934 0 0 .908934 98.2443 63.6899)"><path d="m192.5 181.4s.1.1 0 .2c0 .1-.1.1-.1.1h-12.3c-.1 0-.1 0-.1-.1l-10.6-12.9-10.6 12.9-.1.1h-9.9c-.1 0-.1 0-.1-.1v-.2l15.6-19.2-15.4-19v-.2l.1-.1h12.3s.1 0 .1.1l9.3 11.5 9.5-11.5.1-.1h10c.1 0 .1.1.1.1v.2l-14.6 17.6zm84.6-22.3c0 1.7-.3 5.5-.3 5.6l-.1.1h-28.2c.6 6.6 4.8 10.3 11.7 10.3 4.2 0 8.8-1.4 15.1-4.8.1-.1.2 0 .2.1v8.7c0 .1 0 .1-.1.1-5.9 2.5-11.9 4.2-16.5 4.2-12.1 0-20.9-8.8-20.9-21s8.8-21 20.9-21c11.1 0 18.2 7.5 18.2 17.7zm-9.9-.6c0-4.6-3.4-8.7-8.3-8.7-5.4 0-9.2 3.3-10.2 9.1h18.5zm71.8-15.5h-10.2c-.1 0-.1.1-.1.2v38.4c0 .1.1.2.2.2h10.1c.1 0 .1-.1.1-.2v-38.4c.1-.1 0-.2-.1-.2zm-5-20.5c-3.5 0-6.3 2.8-6.3 6.3 0 3.4 2.8 6.2 6.3 6.2s6.3-2.8 6.3-6.2c-.1-3.5-2.9-6.3-6.3-6.3zm-99.6 39.7c0 12.9-9 21.2-22.8 21.2-2 0-4.1-.2-6.5-.6v19.1c-3.6 2.6-7.4 3.7-10.4 4.1v-62.9c0-.1.1-.2.1-.2h10.1c3-1 5.9-1.6 8.8-1.6 12.2.1 20.7 8.7 20.7 20.9zm-10.6 0c0-7.7-4.7-12.9-11.8-12.9-2.2 0-4.4.4-6.9 1.2v24.6c2.2.6 4 .8 5.9.8 7.7 0 12.8-5.4 12.8-13.7zm86.6-39.5c3.7-2.7 7.3-3.7 10.4-4.1v61.3c-3.1 2.2-6.3 3.3-9.1 3.9v-3.5c-4.2 2.2-7.8 3.1-11.6 3.1-11.1 0-19.1-8.7-19.1-20.7 0-12.1 9.1-21.2 21.2-21.2 2.6 0 5.3.4 8.2 1.2zm0 28c-2.4-1.1-4.4-1.6-6.5-1.6-7.4 0-12.2 5.6-12.2 14.1 0 7.4 3.8 11.9 10 11.9 2.7 0 5.5-.8 8.7-2.5zm74.4-8.2v37.3c-3 2.2-6.2 3.3-8.9 3.9v-4.9c-3.8 4.4-7.9 4.6-11.1 4.6-11.9 0-19.9-8.2-19.9-20.4 0-12.1 8.9-21.5 20.3-21.5 3.2 0 6.4.8 10.2 2.4h.2v-1.4c0-.2.2-.4.5-.4h8.2c.3 0 .5.2.5.4zm-10.4 8.9c-2.8-1.5-5.1-2.2-7-2.2-7 0-11.8 5.7-11.8 14.1 0 7.5 4 11.9 10.7 11.9 2.3 0 5-.9 8-2.6v-21.2zm-253.8 20.7v-19.2h21.7c.1 0 .2-.1.2-.2v-9.5c0-.1-.1-.1-.2-.1h-21.7v-13.7h21.9c2.2-3.4 3.2-6.8 3.6-9.7h-29.8-.3c-3.3 0-5.9 2.5-6.2 5.7v50.5c.3 3.2 3 5.7 6.2 5.7h26.6c2.2-3.4 3.2-6.7 3.6-9.6h-25.6zm-27.2 6c0 2.9-2.2 4.9-4.8 4.9-2.8 0-4.8-2.1-4.8-4.9 0-2.9 2.2-4.9 4.8-4.9s4.8 1.9 4.8 4.9zm-.7 0c0-2.6-1.8-4.4-4.1-4.4s-4.1 1.8-4.1 4.4c0 2.4 1.6 4.4 4.1 4.4 2.4-.1 4.1-1.9 4.1-4.4zm-3.3.3 1.6 2.5h-1l-1.5-2.5h-.9v2.5h-.9v-5.8h2.2c1.4 0 2.1.5 2.1 1.7-.1 1.1-.7 1.5-1.6 1.6zm-.8-.7c.7 0 1.4-.1 1.4-.9 0-.7-.7-.8-1.3-.8h-1.2v1.8h1.1zm309.4-32.7c0 2.9-2.2 4.9-4.8 4.9-2.8 0-4.8-2.1-4.8-4.9 0-2.9 2.2-4.9 4.8-4.9s4.8 1.9 4.8 4.9zm-.7 0c0-2.6-1.8-4.4-4.1-4.4s-4.1 1.8-4.1 4.4c0 2.4 1.6 4.4 4.1 4.4 2.3 0 4.1-1.8 4.1-4.4zm-3.3.3 1.6 2.5h-1.1l-1.5-2.5h-.9v2.5h-.9v-5.8h2.2c1.4 0 2.1.5 2.1 1.7 0 1.1-.6 1.5-1.5 1.6zm-.8-.7c.7 0 1.4-.1 1.4-.9 0-.7-.7-.8-1.3-.8h-1.2v1.8h1.1zm-337.4-15.3-1.9-5.2-15.7-21 2.8-.7 27.1 23.4 15.9-4.6c1.9-.5 4-.6 5.6-.6-5-10.8-14.2-19.7-26.3-24-23.9-8.5-50.2 4-58.7 27.9-2.6 7.4-3.3 15-2.1 22.3l38.2-13.3zm30-1.8-16 4.6-10.7 34.2-2.8.9 2.3-26.1-1.3-5.4-15 4.3-39.5 9.3c3.1 15.2 13.9 28.5 29.6 34.1 23.9 8.5 50.2-4 58.7-27.9 3.7-10.3 3.4-21.1.1-30.6-1.3.7-3.3 1.9-5.4 2.6z" fill="#072f54"/><path d="m57.4 135.6 1.3 5.4-2.3 26.1 2.8-.9 10.7-34.2 16-4.6c2-.7 4.1-1.8 5.5-2.8-.5-1.4-1.1-2.8-1.7-4.1-1.6 0-3.7.1-5.6.6l-15.9 4.6-27.2-23.4-2.8.7 15.7 21 1.9 5.2-15.1 4.3-38.2 13.3c.1.8.3 1.6.4 2.4l39.5-9.3c.1 0 15-4.3 15-4.3z" fill="#fbc108"/></g></svg>

<?xml version="1.0" encoding="UTF-8" standalone="no"?>
<!DOCTYPE svg PUBLIC "-//W3C//DTD SVG 1.1//EN" "http://www.w3.org/Graphics/SVG/1.1/DTD/svg11.dtd">
<svg width="100%" height="100%" viewBox="0 0 560 400" version="1.1" xmlns="http://www.w3.org/2000/svg" xmlns:xlink="http://www.w3.org/1999/xlink" xml:space="preserve" xmlns:serif="http://www.serif.com/" style="fill-rule:evenodd;clip-rule:evenodd;stroke-linejoin:round;stroke-miterlimit:1.41421;">
    <g transform="matrix(0.908934,0,0,0.908934,98.2443,63.6899)">
        <path id="blue" d="M192.5,181.4C192.5,181.4 192.6,181.5 192.5,181.6C192.5,181.7 192.4,181.7 192.4,181.7L180.1,181.7C180,181.7 180,181.7 180,181.6L169.4,168.7L158.8,181.6L158.7,181.7L148.8,181.7C148.7,181.7 148.7,181.7 148.7,181.6L148.7,181.4L164.3,162.2L148.9,143.2L148.9,143L149,142.9L161.3,142.9C161.3,142.9 161.4,142.9 161.4,143L170.7,154.5L180.2,143L180.3,142.9L190.3,142.9C190.4,142.9 190.4,143 190.4,143L190.4,143.2L175.8,160.8L192.5,181.4ZM277.1,159.1C277.1,160.8 276.8,164.6 276.8,164.7L276.7,164.8L248.5,164.8C249.1,171.4 253.3,175.1 260.2,175.1C264.4,175.1 269,173.7 275.3,170.3C275.4,170.2 275.5,170.3 275.5,170.4L275.5,179.1C275.5,179.2 275.5,179.2 275.4,179.2C269.5,181.7 263.5,183.4 258.9,183.4C246.8,183.4 238,174.6 238,162.4C238,150.2 246.8,141.4 258.9,141.4C270,141.4 277.1,148.9 277.1,159.1ZM267.2,158.5C267.2,153.9 263.8,149.8 258.9,149.8C253.5,149.8 249.7,153.1 248.7,158.9L267.2,158.9L267.2,158.5ZM339,143L328.8,143C328.7,143 328.7,143.1 328.7,143.2L328.7,181.6C328.7,181.7 328.8,181.8 328.9,181.8L339,181.8C339.1,181.8 339.1,181.7 339.1,181.6L339.1,143.2C339.2,143.1 339.1,143 339,143ZM334,122.5C330.5,122.5 327.7,125.3 327.7,128.8C327.7,132.2 330.5,135 334,135C337.5,135 340.3,132.2 340.3,128.8C340.2,125.3 337.4,122.5 334,122.5ZM234.4,162.2C234.4,175.1 225.4,183.4 211.6,183.4C209.6,183.4 207.5,183.2 205.1,182.8L205.1,201.9C201.5,204.5 197.7,205.6 194.7,206L194.7,143.1C194.7,143 194.8,142.9 194.8,142.9L204.9,142.9C207.9,141.9 210.8,141.3 213.7,141.3C225.9,141.4 234.4,150 234.4,162.2ZM223.8,162.2C223.8,154.5 219.1,149.3 212,149.3C209.8,149.3 207.6,149.7 205.1,150.5L205.1,175.1C207.3,175.7 209.1,175.9 211,175.9C218.7,175.9 223.8,170.5 223.8,162.2ZM310.4,122.7C314.1,120 317.7,119 320.8,118.6L320.8,179.9C317.7,182.1 314.5,183.2 311.7,183.8L311.7,180.3C307.5,182.5 303.9,183.4 300.1,183.4C289,183.4 281,174.7 281,162.7C281,150.6 290.1,141.5 302.2,141.5C304.8,141.5 307.5,141.9 310.4,142.7L310.4,122.7ZM310.4,150.7C308,149.6 306,149.1 303.9,149.1C296.5,149.1 291.7,154.7 291.7,163.2C291.7,170.6 295.5,175.1 301.7,175.1C304.4,175.1 307.2,174.3 310.4,172.6L310.4,150.7ZM384.8,142.5L384.8,179.8C381.8,182 378.6,183.1 375.9,183.7L375.9,178.8C372.1,183.2 368,183.4 364.8,183.4C352.9,183.4 344.9,175.2 344.9,163C344.9,150.9 353.8,141.5 365.2,141.5C368.4,141.5 371.6,142.3 375.4,143.9L375.6,143.9L375.6,142.5C375.6,142.3 375.8,142.1 376.1,142.1L384.3,142.1C384.6,142.1 384.8,142.3 384.8,142.5ZM374.4,151.4C371.6,149.9 369.3,149.2 367.4,149.2C360.4,149.2 355.6,154.9 355.6,163.3C355.6,170.8 359.6,175.2 366.3,175.2C368.6,175.2 371.3,174.3 374.3,172.6L374.3,151.4L374.4,151.4ZM120.6,172.1L120.6,152.9L142.3,152.9C142.4,152.9 142.5,152.8 142.5,152.7L142.5,143.2C142.5,143.1 142.4,143.1 142.3,143.1L120.6,143.1L120.6,129.4L142.5,129.4C144.7,126 145.7,122.6 146.1,119.7L116.3,119.7L116,119.7C112.7,119.7 110.1,122.2 109.8,125.4L109.8,175.9C110.1,179.1 112.8,181.6 116,181.6L142.6,181.6C144.8,178.2 145.8,174.9 146.2,172L120.6,172L120.6,172.1ZM93.4,178.1C93.4,181 91.2,183 88.6,183C85.8,183 83.8,180.9 83.8,178.1C83.8,175.2 86,173.2 88.6,173.2C91.2,173.2 93.4,175.1 93.4,178.1ZM92.7,178.1C92.7,175.5 90.9,173.7 88.6,173.7C86.3,173.7 84.5,175.5 84.5,178.1C84.5,180.5 86.1,182.5 88.6,182.5C91,182.4 92.7,180.6 92.7,178.1ZM89.4,178.4L91,180.9L90,180.9L88.5,178.4L87.6,178.4L87.6,180.9L86.7,180.9L86.7,175.1L88.9,175.1C90.3,175.1 91,175.6 91,176.8C90.9,177.9 90.3,178.3 89.4,178.4ZM88.6,177.7C89.3,177.7 90,177.6 90,176.8C90,176.1 89.3,176 88.7,176L87.5,176L87.5,177.8L88.6,177.8L88.6,177.7ZM398,145C398,147.9 395.8,149.9 393.2,149.9C390.4,149.9 388.4,147.8 388.4,145C388.4,142.1 390.6,140.1 393.2,140.1C395.8,140.1 398,142 398,145ZM397.3,145C397.3,142.4 395.5,140.6 393.2,140.6C390.9,140.6 389.1,142.4 389.1,145C389.1,147.4 390.7,149.4 393.2,149.4C395.5,149.4 397.3,147.6 397.3,145ZM394,145.3L395.6,147.8L394.5,147.8L393,145.3L392.1,145.3L392.1,147.8L391.2,147.8L391.2,142L393.4,142C394.8,142 395.5,142.5 395.5,143.7C395.5,144.8 394.9,145.2 394,145.3ZM393.2,144.6C393.9,144.6 394.6,144.5 394.6,143.7C394.6,143 393.9,142.9 393.3,142.9L392.1,142.9L392.1,144.7L393.2,144.7L393.2,144.6ZM55.8,129.3L53.9,124.1L38.2,103.1L41,102.4L68.1,125.8L84,121.2C85.9,120.7 88,120.6 89.6,120.6C84.6,109.8 75.4,100.9 63.3,96.6C39.4,88.1 13.1,100.6 4.6,124.5C2,131.9 1.3,139.5 2.5,146.8L40.7,133.5L55.8,129.3ZM85.8,127.5L69.8,132.1L59.1,166.3L56.3,167.2L58.6,141.1L57.3,135.7L42.3,140L2.8,149.3C5.9,164.5 16.7,177.8 32.4,183.4C56.3,191.9 82.6,179.4 91.1,155.5C94.8,145.2 94.5,134.4 91.2,124.9C89.9,125.6 87.9,126.8 85.8,127.5Z" style="fill:rgb(7,47,84);fill-rule:nonzero;"/>
        <path id="yellow" d="M57.4,135.6L58.7,141L56.4,167.1L59.2,166.2L69.9,132L85.9,127.4C87.9,126.7 90,125.6 91.4,124.6C90.9,123.2 90.3,121.8 89.7,120.5C88.1,120.5 86,120.6 84.1,121.1L68.2,125.7L41,102.3L38.2,103L53.9,124L55.8,129.2L40.7,133.5L2.5,146.8C2.6,147.6 2.8,148.4 2.9,149.2L42.4,139.9C42.5,139.9 57.4,135.6 57.4,135.6Z" style="fill:rgb(251,193,8);fill-rule:nonzero;"/>
    </g>
</svg>
